X:159
T:Walsh's Polka #3
T:Lackagh Cross
T:Bill the Weaver's #2
T:Din Tarrant's #1
D:Patrick Street: All in Good Time
M:2/4
L:1/8
R:polka
N:Set with other two Walsh's Polkas
K:D
dB fB|dB fe/d/|c/B/A/c/ e/c/A/B/|c/B/A/c/ ec/e/|
fb ba|fb ba|fa fe/d/|1 c/B/A B>c:|2 c/B/A Bf||
|:a>f df|A/B/c/d/ e2|g/f/e/d/ cA|Bc df|
a>f df|A/B/c/d/ e2|g/f/e/d/ cA|1 Bc df:|2 Bc d>c||
